X:8011
T:High Germany
T:Flowers of Manchester
R:March
C:Trad.
O:England
Z:Paul Hardy's Session Tunebook 2015 (see www.paulhardy.net). Creative Commons cc by-nc-sa licenced.
M:4/4
L:1/8
Q:1/4=200
K:G
B2|"Em"B3 E E2 D2|"G"G3 A B2 B2|"Am"A2 E2 E3 D|"Em"E6 EF|"G"G2 G2 GABc|"G"d4 "C"e4|"G"d2 B2 A2 Bc|"Em"B6 BA|
"G"G2 G2 GABc|"Bm"d2 d2 e3 d|"G"d2 B2 A2 G2|"Am"A6 G A|"Em"B2 E2 E3 D|"G"G3 A B2 B2|"Am"A2 G2 E3 D1|"Em"E6|]

